static/img/kroki/096ba7088c4888e9fb700faf206b2ca4.svg

<?xml version="1.0" encoding="us-ascii" standalone="no"?><svg xmlns="http://www.w3.org/2000/svg" xmlns:xlink="http://www.w3.org/1999/xlink" contentStyleType="text/css" height="152px" preserveAspectRatio="none" style="width:554px;height:152px;" version="1.1" viewBox="0 0 554 152" width="554px" zoomAndPan="magnify"><defs/><g><!--class gcp_backend_service--><g id="elem_gcp_backend_service"><rect codeLine="22" fill="#3D176E" height="39.7891" id="gcp_backend_service" rx="2.5" ry="2.5" style="stroke:#000D19;stroke-width:0.5;" width="215" x="7" y="7"/><ellipse cx="22" cy="26.8945" fill="#ADD1B2" rx="11" ry="11" style="stroke:#181818;stroke-width:1.0;"/><path d="M24.9688,32.5352 Q24.3906,32.832 23.75,32.9727 Q23.1094,33.1289 22.4063,33.1289 Q19.9063,33.1289 18.5781,31.4883 Q17.2656,29.832 17.2656,26.707 Q17.2656,23.582 18.5781,21.9258 Q19.9063,20.2695 22.4063,20.2695 Q23.1094,20.2695 23.75,20.4258 Q24.4063,20.582 24.9688,20.8789 L24.9688,23.5977 Q24.3438,23.0195 23.75,22.7539 Q23.1563,22.4727 22.5313,22.4727 Q21.1875,22.4727 20.5,23.5508 Q19.8125,24.6133 19.8125,26.707 Q19.8125,28.8008 20.5,29.8789 Q21.1875,30.9414 22.5313,30.9414 Q23.1563,30.9414 23.75,30.6758 Q24.3438,30.3945 24.9688,29.8164 L24.9688,32.5352 Z " fill="#000000"/><text fill="#D9B8FF" font-family="Helvetica" font-size="17" lengthAdjust="spacing" textLength="173" x="41" y="32.7798">gcp_backend_service</text></g><!--class gcp_https_health_check--><g id="elem_gcp_https_health_check"><rect codeLine="24" fill="#3D176E" height="39.7891" id="gcp_https_health_check" rx="2.5" ry="2.5" style="stroke:#000D19;stroke-width:0.5;" width="241" x="138" y="106.79"/><ellipse cx="153" cy="126.6845" fill="#ADD1B2" rx="11" ry="11" style="stroke:#181818;stroke-width:1.0;"/><path d="M155.9688,132.3252 Q155.3906,132.622 154.75,132.7627 Q154.1094,132.9189 153.4063,132.9189 Q150.9063,132.9189 149.5781,131.2783 Q148.2656,129.622 148.2656,126.497 Q148.2656,123.372 149.5781,121.7158 Q150.9063,120.0595 153.4063,120.0595 Q154.1094,120.0595 154.75,120.2158 Q155.4063,120.372 155.9688,120.6689 L155.9688,123.3877 Q155.3438,122.8095 154.75,122.5439 Q154.1563,122.2627 153.5313,122.2627 Q152.1875,122.2627 151.5,123.3408 Q150.8125,124.4033 150.8125,126.497 Q150.8125,128.5908 151.5,129.6689 Q152.1875,130.7314 153.5313,130.7314 Q154.1563,130.7314 154.75,130.4658 Q155.3438,130.1845 155.9688,129.6064 L155.9688,132.3252 Z " fill="#000000"/><text fill="#D9B8FF" font-family="Helvetica" font-size="17" lengthAdjust="spacing" textLength="199" x="172" y="132.5698">gcp_https_health_check</text></g><!--class gcp_instance_group_manager--><g id="elem_gcp_instance_group_manager"><rect codeLine="26" fill="#3D176E" height="39.7891" id="gcp_instance_group_manager" rx="2.5" ry="2.5" style="stroke:#000D19;stroke-width:0.5;" width="290" x="257.5" y="7"/><ellipse cx="272.5" cy="26.8945" fill="#ADD1B2" rx="11" ry="11" style="stroke:#181818;stroke-width:1.0;"/><path d="M275.4688,32.5352 Q274.8906,32.832 274.25,32.9727 Q273.6094,33.1289 272.9063,33.1289 Q270.4063,33.1289 269.0781,31.4883 Q267.7656,29.832 267.7656,26.707 Q267.7656,23.582 269.0781,21.9258 Q270.4063,20.2695 272.9063,20.2695 Q273.6094,20.2695 274.25,20.4258 Q274.9063,20.582 275.4688,20.8789 L275.4688,23.5977 Q274.8438,23.0195 274.25,22.7539 Q273.6563,22.4727 273.0313,22.4727 Q271.6875,22.4727 271,23.5508 Q270.3125,24.6133 270.3125,26.707 Q270.3125,28.8008 271,29.8789 Q271.6875,30.9414 273.0313,30.9414 Q273.6563,30.9414 274.25,30.6758 Q274.8438,30.3945 275.4688,29.8164 L275.4688,32.5352 Z " fill="#000000"/><text fill="#D9B8FF" font-family="Helvetica" font-size="17" lengthAdjust="spacing" textLength="248" x="291.5" y="32.7798">gcp_instance_group_manager</text></g><!--link gcp_backend_service to gcp_https_health_check--><g id="link_gcp_backend_service_gcp_https_health_check"><path codeLine="28" d="M142.95,47.22 C166.62,63.29 200.34,86.19 225.25,103.11 " fill="none" id="gcp_backend_service-to-gcp_https_health_check" style="stroke:#1A83AF;stroke-width:2.0;"/><polygon fill="#1A83AF" points="229.11,106.41,223.9264,98.0356,224.9786,103.5938,219.4204,104.6459,229.11,106.41" style="stroke:#1A83AF;stroke-width:2.0;"/></g><!--link gcp_instance_group_manager to gcp_https_health_check--><g id="link_gcp_instance_group_manager_gcp_https_health_check"><path codeLine="29" d="M374.05,47.22 C350.38,63.29 316.66,86.19 291.75,103.11 " fill="none" id="gcp_instance_group_manager-to-gcp_https_health_check" style="stroke:#1A83AF;stroke-width:2.0;"/><polygon fill="#1A83AF" points="287.89,106.41,297.5796,104.6459,292.0214,103.5938,293.0736,98.0356,287.89,106.41" style="stroke:#1A83AF;stroke-width:2.0;"/></g><!--SRC=[ZP1DIyD048Rl_HKBFHSQWxQz2B5Gz5B4UXC9aztPP4co6sQdBLNyxpPMPKtwuNNVPz-FAOn2WNN3Er5ZdI7vWI-DRO2W5WcHsyvTvKWCjGOTJxhYmbc-22oXHd6FrGRPIEWIpuMHfKNlnLKWtO4iSt9hgmxsJ63zNaBB0JMlmFk4cKosPWpAg5asrRfBTas7iOecDzZ372caRsGy7gjeraKkHftT_Kkip1kAA3pQqZ7sQlOYlgYpBLiYADaR-gEVxFW8IXcRY-lWxUdGYIpId_TL0SfjMrf3vSCOpqZeUDVWlBSAPrEb9qVXXrEmR2ydSjcasPv0grAFj34InVlW8r0BviQd1KB5HIeBb6K7CDOpM8bfczAaDLZ8zwjQw9Zxw6KO9TCuMRoERay43CxO_kFx9m00]--></g></svg>

<svg xmlns="http://www.w3.org/2000/svg" width="554" height="152" preserveAspectRatio="none" style="width:554px;height:152px"><rect width="215" height="39.789" x="7" y="7" fill="#3D176E" rx="2.5" ry="2.5" style="stroke:#000d19;stroke-width:.5"/><circle cx="22" cy="26.895" r="11" fill="#ADD1B2" style="stroke:#181818;stroke-width:1"/><path d="M24.969 32.535q-.578.297-1.219.438-.64.156-1.344.156-2.5 0-3.828-1.64-1.312-1.657-1.312-4.782t1.312-4.781q1.328-1.656 3.828-1.656.703 0 1.344.156.656.156 1.219.453v2.719q-.625-.578-1.219-.844-.594-.281-1.219-.281-1.343 0-2.031 1.078-.688 1.062-.688 3.156 0 2.094.688 3.172.688 1.062 2.031 1.062.625 0 1.219-.265.594-.281 1.219-.86v2.72Z"/><text x="41" y="32.78" fill="#D9B8FF" font-family="Helvetica" font-size="17" textLength="173">gcp_backend_service</text><rect width="241" height="39.789" x="138" y="106.79" fill="#3D176E" rx="2.5" ry="2.5" style="stroke:#000d19;stroke-width:.5"/><circle cx="153" cy="126.684" r="11" fill="#ADD1B2" style="stroke:#181818;stroke-width:1"/><path d="M155.969 132.325q-.578.297-1.219.438-.64.156-1.344.156-2.5 0-3.828-1.64-1.312-1.657-1.312-4.782t1.312-4.781q1.328-1.656 3.828-1.656.703 0 1.344.156.656.156 1.219.453v2.719q-.625-.579-1.219-.844-.594-.281-1.219-.281-1.344 0-2.031 1.078-.688 1.062-.688 3.156 0 2.094.688 3.172.688 1.062 2.031 1.062.625 0 1.219-.265.594-.281 1.219-.86v2.72Z"/><text x="172" y="132.57" fill="#D9B8FF" font-family="Helvetica" font-size="17" textLength="199">gcp_https_health_check</text><rect width="290" height="39.789" x="257.5" y="7" fill="#3D176E" rx="2.5" ry="2.5" style="stroke:#000d19;stroke-width:.5"/><circle cx="272.5" cy="26.895" r="11" fill="#ADD1B2" style="stroke:#181818;stroke-width:1"/><path d="M275.469 32.535q-.578.297-1.219.438-.64.156-1.344.156-2.5 0-3.828-1.64-1.312-1.657-1.312-4.782t1.312-4.781q1.328-1.656 3.828-1.656.703 0 1.344.156.656.156 1.219.453v2.719q-.625-.578-1.219-.844-.594-.281-1.219-.281-1.344 0-2.031 1.078-.688 1.062-.688 3.156 0 2.094.688 3.172.688 1.062 2.031 1.062.625 0 1.219-.265.594-.281 1.219-.86v2.72Z"/><text x="291.5" y="32.78" fill="#D9B8FF" font-family="Helvetica" font-size="17" textLength="248">gcp_instance_group_manager</text><path fill="none" d="M142.95 47.22c23.67 16.07 57.39 38.97 82.3 55.89" style="stroke:#1a83af;stroke-width:2"/><path fill="#1A83AF" d="m229.11 106.41-5.184-8.374 1.053 5.558-5.559 1.052 9.69 1.764z" style="stroke:#1a83af;stroke-width:2"/><path fill="none" d="M374.05 47.22c-23.67 16.07-57.39 38.97-82.3 55.89" style="stroke:#1a83af;stroke-width:2"/><path fill="#1A83AF" d="m287.89 106.41 9.69-1.764-5.559-1.052 1.053-5.558-5.184 8.374z" style="stroke:#1a83af;stroke-width:2"/></svg>
